X: 32376
T: Pipe On The Hob, The
R: jig
M: 6/8
K: Dmixolydian
|:c|ded A2G|FAF D2D|EDE cdc|E2D D2c|
dcB cBA|BAG A2G|EDE cdc|E2D D2:|
e|f2d d^cd|f2d d^cd|edB c2d|ede age|
f2d d^cd|f2d d^cd|ede gag|ed^c d2e||
fg/a/ f d2d|faf d2d|edB c2d|ede age|
fef gfg|aga g2e|fed eag|edc d3||

